icons/sticky-note-line.svg

<svg xmlns="http://www.w3.org/2000/svg" width="24" height="24" fill="none"><g clip-path="url(#a)"><g><path fill="#121212" d="M21 15L15 20.996L4.002 21C3.73749 21.0011 3.48337 20.8971 3.29549 20.7109C3.1076 20.5247 3.00132 20.2715 3 20.007V3.993C3 3.445 3.445 3 3.993 3H20.007C20.555 3 21 3.456 21 4.002V15ZM19 5H5V19H13V14C13 13.7551 13.09 13.5187 13.2527 13.3356C13.4155 13.1526 13.6397 13.0357 13.883 13.007L14 13L19 12.999V5ZM18.171 14.999L15 15V18.169L18.171 14.999Z"/></g></g><defs><clipPath id="a"><rect width="24" height="24" fill="white"/></clipPath></defs></svg>

<svg width="24" height="24" fill="none" xmlns="http://www.w3.org/2000/svg"><g clip-path="url(#a)"><path d="m21 15-6 5.996L4.002 21A.998.998 0 0 1 3 20.007V3.993C3 3.445 3.445 3 3.993 3h16.014c.548 0 .993.456.993 1.002V15ZM19 5H5v14h8v-5a1 1 0 0 1 .883-.993L14 13l5-.001V5Zm-.829 9.999L15 15v3.169l3.171-3.17Z" /></g><defs><clipPath id="a"><path fill="#fff" d="M0 0h24v24H0z"/></clipPath></defs></svg>
